X:22
T:Katy's Waltz
C:Alan Lamb
R:waltz
Z:Ian Gillingham <ian.gillingham:gmail.com> via email 2014-12-1
M:3/4
L:1/4
K:Em
"G"dd/c/ B/A/ | "Em"GE>D | "C"E/F/.G.B | "D"A2G/A/ |\
[1 "G".[BD].[BD]PA/G/ | "Bm".BBc/B/ | "C".c/B/AG | "D"dBc :| 
[2"G".[BD].[BD]A/B/ | "Bm"dB>.A | "C".G.A."Dd"PF | "G"G2F ||
"Em"E/B,/ E/G/ B/G/ | "Am"PF.E>.G | "Em"E/B,/ E/G/ B/G/ | "Am"PFE2 |\
"Em"E/B,/ E/G/ B/G/ | "Am"PF.E.G | "C"A.GA | "B"B3 |
"G".dd/c/ B/A/ | "Em"GE>D | "C"E/F/.G.B | "D"A2[GD]/[AE]/ |\
"G".[BD].[BD]A/B/ | "Bm"dB>A | "C".G.A."D"PF | "G"G3 |] 
